build/images/bg/team.svg

<svg width="592" height="159" viewBox="0 0 592 159" fill="none" xmlns="http://www.w3.org/2000/svg">
<g opacity="0.2">
<path fill-rule="evenodd" clip-rule="evenodd" d="M130 1H1V28.6931H50.6322V158H80.3678V28.6931H130V1ZM250 28.6931V1H147V158H250V130.307H176.804V93.2375H236.851V65.5444H176.804V28.6931H250ZM410 158H379.518L371.897 133.36H307.885L300.482 158H270L317.9 1H362.1L410 158ZM316 106L339.282 29L363 106H316ZM591 158V1H560.871L510 105.231L459.129 1H429V158H459.129V64.4542L504.76 158H515.24L560.871 64.2361V158H591Z" fill="#071D5B" fill-opacity="0.01"/>
<path d="M1 1V0.5H0.5V1H1ZM130 1H130.5V0.5H130V1ZM1 28.6931H0.5V29.1931H1V28.6931ZM50.6322 28.6931H51.1322V28.1931H50.6322V28.6931ZM50.6322 158H50.1322V158.5H50.6322V158ZM80.3678 158V158.5H80.8678V158H80.3678ZM80.3678 28.6931V28.1931H79.8678V28.6931H80.3678ZM130 28.6931V29.1931H130.5V28.6931H130ZM250 1H250.5V0.5H250V1ZM250 28.6931V29.1931H250.5V28.6931H250ZM147 1V0.5H146.5V1H147ZM147 158H146.5V158.5H147V158ZM250 158V158.5H250.5V158H250ZM250 130.307H250.5V129.807H250V130.307ZM176.804 130.307H176.304V130.807H176.804V130.307ZM176.804 93.2375V92.7375H176.304V93.2375H176.804ZM236.851 93.2375V93.7375H237.351V93.2375H236.851ZM236.851 65.5444H237.351V65.0444H236.851V65.5444ZM176.804 65.5444H176.304V66.0444H176.804V65.5444ZM176.804 28.6931V28.1931H176.304V28.6931H176.804ZM379.518 158L379.04 158.148L379.149 158.5H379.518V158ZM410 158V158.5H410.675L410.478 157.854L410 158ZM371.897 133.36L372.375 133.212L372.266 132.86H371.897V133.36ZM307.885 133.36V132.86H307.513L307.406 133.216L307.885 133.36ZM300.482 158V158.5H300.854L300.961 158.144L300.482 158ZM270 158L269.522 157.854L269.325 158.5H270V158ZM317.9 1V0.5H317.53L317.422 0.854091L317.9 1ZM362.1 1L362.578 0.854091L362.47 0.5H362.1V1ZM339.282 29L339.76 28.8528L339.278 27.2871L338.804 28.8553L339.282 29ZM316 106L315.521 105.855L315.326 106.5H316V106ZM363 106V106.5H363.677L363.478 105.853L363 106ZM591 1H591.5V0.5H591V1ZM591 158V158.5H591.5V158H591ZM560.871 1V0.5H560.558L560.421 0.780696L560.871 1ZM510 105.231L509.551 105.45L510 106.371L510.449 105.45L510 105.231ZM459.129 1L459.579 0.780696L459.442 0.5H459.129V1ZM429 1V0.5H428.5V1H429ZM429 158H428.5V158.5H429V158ZM459.129 158V158.5H459.629V158H459.129ZM459.129 64.4542L459.579 64.235L458.629 64.4542H459.129ZM504.76 158L504.311 158.219L504.448 158.5H504.76V158ZM515.24 158V158.5H515.553L515.689 158.219L515.24 158ZM560.871 64.2361H561.371L560.421 64.0173L560.871 64.2361ZM560.871 158H560.371V158.5H560.871V158ZM1 1.5H130V0.5H1V1.5ZM1.5 28.6931V1H0.5V28.6931H1.5ZM50.6322 28.1931H1V29.1931H50.6322V28.1931ZM51.1322 158V28.6931H50.1322V158H51.1322ZM80.3678 157.5H50.6322V158.5H80.3678V157.5ZM79.8678 28.6931V158H80.8678V28.6931H79.8678ZM130 28.1931H80.3678V29.1931H130V28.1931ZM129.5 1V28.6931H130.5V1H129.5ZM249.5 1V28.6931H250.5V1H249.5ZM147 1.5H250V0.5H147V1.5ZM147.5 158V1H146.5V158H147.5ZM250 157.5H147V158.5H250V157.5ZM249.5 130.307V158H250.5V130.307H249.5ZM176.804 130.807H250V129.807H176.804V130.807ZM176.304 93.2375V130.307H177.304V93.2375H176.304ZM236.851 92.7375H176.804V93.7375H236.851V92.7375ZM236.351 65.5444V93.2375H237.351V65.5444H236.351ZM176.804 66.0444H236.851V65.0444H176.804V66.0444ZM176.304 28.6931V65.5444H177.304V28.6931H176.304ZM250 28.1931H176.804V29.1931H250V28.1931ZM379.518 158.5H410V157.5H379.518V158.5ZM371.42 133.507L379.04 158.148L379.996 157.852L372.375 133.212L371.42 133.507ZM307.885 133.86H371.897V132.86H307.885V133.86ZM300.961 158.144L308.364 133.504L307.406 133.216L300.003 157.856L300.961 158.144ZM270 158.5H300.482V157.5H270V158.5ZM317.422 0.854091L269.522 157.854L270.478 158.146L318.379 1.14591L317.422 0.854091ZM362.1 0.5H317.9V1.5H362.1V0.5ZM410.478 157.854L362.578 0.854091L361.621 1.14591L409.522 158.146L410.478 157.854ZM338.804 28.8553L315.521 105.855L316.479 106.145L339.761 29.1447L338.804 28.8553ZM363.478 105.853L339.76 28.8528L338.805 29.1472L362.522 106.147L363.478 105.853ZM316 106.5H363V105.5H316V106.5ZM590.5 1V158H591.5V1H590.5ZM560.871 1.5H591V0.5H560.871V1.5ZM510.449 105.45L561.32 1.2193L560.421 0.780696L509.551 105.011L510.449 105.45ZM458.68 1.2193L509.551 105.45L510.449 105.011L459.579 0.780696L458.68 1.2193ZM429 1.5H459.129V0.5H429V1.5ZM429.5 158V1H428.5V158H429.5ZM459.129 157.5H429V158.5H459.129V157.5ZM458.629 64.4542V158H459.629V64.4542H458.629ZM505.21 157.781L459.579 64.235L458.68 64.6734L504.311 158.219L505.21 157.781ZM515.24 157.5H504.76V158.5H515.24V157.5ZM560.421 64.0173L514.79 157.781L515.689 158.219L561.32 64.4549L560.421 64.0173ZM561.371 158V64.2361H560.371V158H561.371ZM591 157.5H560.871V158.5H591V157.5Z" fill="#7A7A7A"/>
</g>
</svg>

<svg width="592px" height="159px" xmlns="http://www.w3.org/2000/svg" viewBox="0 0 592 159"><g opacity=".2"><path d="M130 1H1v27.7h49.6V158h29.7V28.7H130V1zm120 27.7V1H147v157h103v-27.7h-73.2V93.2h60V65.5h-60V28.7H250zM410 158h-30.5l-7.6-24.6h-64l-7.4 24.6H270L317.9 1h44.2L410 158zm-94-52l23.3-77 23.7 77h-47zm275 52V1h-30.1L510 105.2 459.1 1H429v157h30.1V64.5l45.6 93.5h10.5l45.6-93.8V158H591z" fill="#071d5b" fill-opacity=".01"/><path d="M1 1V.5H.5V1H1zm129 0h.5V.5h-.5V1zM1 28.7H.5v.5H1v-.5zm49.6 0h.5v-.5h-.5v.5zm0 129.3h-.5v.5h.5v-.5zm29.8 0v.5h.5v-.5h-.5zm0-129.3v-.5h-.5v.5h.5zm49.6 0v.5h.5v-.5h-.5zM250 1h.5V.5h-.5V1zm0 27.7v.5h.5v-.5h-.5zM147 1V.5h-.5V1h.5zm0 157h-.5v.5h.5v-.5zm103 0v.5h.5v-.5h-.5zm0-27.7h.5v-.5h-.5v.5zm-73.2 0h-.5v.5h.5v-.5zm0-37.1v-.5h-.5v.5h.5zm60.1 0v.5h.5v-.5h-.5zm0-27.7h.5V65h-.5v.5zm-60.1 0h-.5v.5h.5v-.5zm0-36.8v-.5h-.5v.5h.5zM379.5 158l-.5.1.1.4h.4v-.5zm30.5 0v.5h.7l-.2-.6-.5.1zm-38.1-24.6l.5-.1-.1-.4h-.4v.5zm-64 0v-.5h-.4l-.1.4.5.1zm-7.4 24.6v.5h.4l.1-.4-.5-.1zm-30.5 0l-.5-.1-.2.6h.7v-.5zM317.9 1V.5h-.4l-.1.4.5.1zm44.2 0l.5-.1-.1-.4h-.4V1zm-22.8 28l.5-.1-.5-1.6-.5 1.6.5.1zM316 106l-.5-.1-.2.6h.7v-.5zm47 0v.5h.7l-.2-.6-.5.1zM591 1h.5V.5h-.5V1zm0 157v.5h.5v-.5h-.5zM560.9 1V.5h-.3l-.1.3.4.2zM510 105.2l-.4.2.4.9.4-.9-.4-.2zM459.1 1l.5-.2-.1-.3h-.3V1zM429 1V.5h-.5V1h.5zm0 157h-.5v.5h.5v-.5zm30.1 0v.5h.5v-.5h-.5zm0-93.5l.5-.2-1 .2h.5zm45.7 93.5l-.4.2.1.3h.3v-.5zm10.4 0v.5h.3l.1-.3-.4-.2zm45.7-93.8h.5l-.9-.2.4.2zm0 93.8h-.5v.5h.5v-.5zM1 1.5h129v-1H1v1zm.5 27.2V1h-1v27.7h1zm49.1-.5H1v1h49.6v-1zm.5 129.8V28.7h-1V158h1zm29.3-.5H50.6v1h29.7v-1zm-.5-128.8V158h1V28.7h-1zm50.1-.5H80.4v1H130v-1zM129.5 1v27.7h1V1h-1zm120 0v27.7h1V1h-1zM147 1.5h103v-1H147v1zm.5 156.5V1h-1v157h1zm102.5-.5H147v1h103v-1zm-.5-27.2V158h1v-27.7h-1zm-72.7.5H250v-1h-73.2v1zm-.5-37.6v37.1h1V93.2h-1zm60.6-.5h-60v1h60v-1zm-.5-27.2v27.7h1V65.5h-1zm-59.6.5h60v-1h-60v1zm-.5-37.3v36.9h1V28.7h-1zm73.7-.5h-73.2v1H250v-1zm129.5 130.3H410v-1h-30.5v1zm-8.1-25l7.6 24.6 1-.3-7.6-24.6-1 .3zm-63.5.4h64v-1h-64v1zm-6.9 24.2l7.4-24.6-1-.3-7.4 24.6 1 .3zm-31 .4h30.5v-1H270v1zM317.4.9l-47.9 157 1 .3 47.9-157-1-.3zm44.7-.4h-44.2v1h44.2v-1zm48.4 157.4L362.6.9l-1 .3 47.9 157 1-.3zm-71.7-129l-23.3 77 1 .3 23.3-77-1-.3zm24.7 77l-23.7-77-1 .3 23.7 77 1-.3zm-47.5.6h47v-1h-47v1zM590.5 1v157h1V1h-1zm-29.6.5H591v-1h-30.1v1zm-50.5 103.9L561.3 1.2l-.9-.4L509.6 105l.8.4zM458.7 1.2l50.9 104.2.9-.4L459.6.8l-.9.4zm-29.7.3h30.1v-1H429v1zm.5 156.5V1h-1v157h1zm29.6-.5H429v1h30.1v-1zm-.5-93V158h1V64.5h-1zm46.6 93.3l-45.6-93.5-.9.4 45.6 93.5.9-.4zm10-.3h-10.5v1h10.5v-1zM560.4 64l-45.6 93.8.9.4 45.6-93.8-.9-.4zm1 94V64.2h-1V158h1zm29.6-.5h-30.1v1H591v-1z" fill="#7a7a7a"/></g></svg>
